X:296
T: TRAU KLEINES MADELEIN TRAU NIE ZU SEHR
N: Z0294
O: Europa, Mitteleuropa, Deutschland, Kuhlaendchen
R: Lyrisches Lied, Romanze, Abschieds - Lied
M: 4/4
L: 1/16
K: C
 | C4C2B,2A,3A,A,4 | D4D2B,2G,4z2
G,2 | C4C2D2E4E2C2 | E2D2D2B,2C4z2
G,2 | C4C2B,2A,4A,4 | D2D2D2B,2G,4G,2
G,2 | C2C2C2D2E4E2C2 | E2D2D2B,2C4C4

